calendar-badge-outline.svg

<svg fill="currentColor" viewBox="0 0 24 24"><path d="M19.5 16c-1.9 0-3.5 1.6-3.5 3.5s1.6 3.5 3.5 3.5 3.5-1.6 3.5-3.5-1.6-3.5-3.5-3.5M14 19.5c0-.17 0-.33.03-.5H5V9h14v5.03c.17-.03.33-.03.5-.03.5 0 1 .08 1.5.21V5a2 2 0 0 0-2-2h-1V1h-2v2H8V1H6v2H5a2 2 0 0 0-2 2v14a2 2 0 0 0 2 2h9.21c-.13-.5-.21-1-.21-1.5M5 5h14v2H5z"/></svg>

<svg  viewBox="0 0 24 24" fill="currentColor"><path  d="M19.5 16C17.6 16 16 17.6 16 19.5S17.6 23 19.5 23 23 21.4 23 19.5 21.4 16 19.5 16M14 19.5C14 19.33 14 19.17 14.03 19H5V9H19V14.03C19.17 14 19.33 14 19.5 14C20 14 20.5 14.08 21 14.21V5C21 3.9 20.11 3 19 3H18V1H16V3H8V1H6V3H5C3.89 3 3 3.9 3 5V19C3 20.11 3.9 21 5 21H14.21C14.08 20.5 14 20 14 19.5M5 5H19V7H5V5Z"/></svg>
